!!!OTL: Wildbretgang (2-59) S. 184
!!!id: P0932
**kern
*clefG2
*k[f#]
*D:
{8d
=1
8d
4a
8d
=2yy
8e
=3
4f#
4e
=4
8d}
=5
{8f#
8g
8b
=6
4a
4dd
=7
4a}
=8
{8a
8g
=9
4f#
4e
=10
8f#
8e
8f#
8g
=11
4a}
=12
{8a
8g
=13
4f#
4e
=14
4f#}
4r
=15
{8a
8f#
8d
8e
=16
4f#
4e
=17
4d}
4r
=18
{4a
8d
8e
=19
4f#
4e
=20
4d}
=21
{8f#
8a
=22
4b
4b
=23
4a
4dd
=24
4a}
=25
{8a
8g
=26
4f#
4e
=27
8f#
8e
8f#
8g
=28
4a}
=29
{8a
8g
=30
4f#
4e
=31
4f#}
4r
==
*-
!!!minrhy: 8
!!!meters: 2/4 ]  ZZ[9
!!!cut: Wildbretgang (2-59) S. 184
!!!reg: Lothringen
!!!trd: PINCK, Louis: Verklingende Weisen, Bd 2, Metz 1928
!!!rhy1:   X_XX  X_X_  X
!!!rhy2: XXX  X_X_  X_
!!!key: P0932  08  D 2/4 ]  ZZ[9
!!!mod: SECHSTONSKALA DUR ?]  AMBITUS[8
!!!kad: 155311553
!!!akz: 531_55_335_33_531_531_655_335_33_
!!!fot: 'a__b__c__cv_av_a__d__c__cv_
!!!for: 'a__b__bw_bv_c__av_bw_bw_bv_
!!!fok: 'Sd_^a_V__\__Sd_Sd_^a_V__\__
!! PHRAS[VORWIEGEND AUFTAKTIG]
!!!fkt: J&auml;gerlied
!! LOTH VKL
!! PR[23] 2K[0] 2G[10] 3K[10] 3G[2] 4A[13] 4Ü[0] 5A[0] 6K[0] 6G[0]
!! 7K[0] 7G[0] 8A[0] MEHR[0] SI[35] ABS[48] SR[10] SP[25]
!! ST[14] 2k[8] 2g[19] 3k[4] 3g[2] 4d[6] 4ü[0] 5d[2] 6k[0] 6g[0]
!! 7k[0] 7g[0] 8d[0] mehr[0] si[42] dm[-7] sr[27] sp[15]
!! 1F[4] 2F[82] 3F[10] 4F[0] LF[0] 2P[4] 3P[0] 4P[0] TRI[0] DF[4] AB[51]
!! TF[0] U3K[0] U3[0] U4[0] U4Ü[0] U5[18] U6K[0] U6[10] U7K[0] U7[6]
!! N1[24] N2K[0] N2[18] N3K[0] N3[10] N4[4] N4Ü[0] N5[8] N6K[0] N6[0]
!!!n7k: 0] N7[0] O1[0] O2K[0] O2[0] O3K[0] O3[0] HÖ[0
!!!RNB: symbol: &auml;      = a umlaut  (UTF-8: Å„)
